flaticon/arrows/multiply-1.svg

<svg xmlns="http://www.w3.org/2000/svg" width="32" height="32" viewBox="0 0 24 24">
    <path d="M18.621094 2.070312C18.621094 2.296875 18.433594 2.484375 18.207031 2.484375 17.976562 2.484375 17.792969 2.296875 17.792969 2.070312 17.792969 1.839844 17.976562 1.65625 18.207031 1.65625 18.433594 1.65625 18.621094 1.839844 18.621094 2.070312zM17.792969 2.898438C17.792969 3.125 17.609375 3.308594 17.378906 3.308594 17.152344 3.308594 16.964844 3.125 16.964844 2.898438 16.964844 2.667969 17.152344 2.484375 17.378906 2.484375 17.609375 2.484375 17.792969 2.667969 17.792969 2.898438zM19.449219 2.898438C19.449219 3.125 19.261719 3.308594 19.035156 3.308594 18.804688 3.308594 18.621094 3.125 18.621094 2.898438 18.621094 2.667969 18.804688 2.484375 19.035156 2.484375 19.261719 2.484375 19.449219 2.667969 19.449219 2.898438zM20.277344 3.722656C20.277344 3.953125 20.089844 4.136719 19.863281 4.136719 19.632812 4.136719 19.449219 3.953125 19.449219 3.722656 19.449219 3.496094 19.632812 3.308594 19.863281 3.308594 20.089844 3.308594 20.277344 3.496094 20.277344 3.722656zM18.621094 3.722656C18.621094 3.953125 18.433594 4.136719 18.207031 4.136719 17.976562 4.136719 17.792969 3.953125 17.792969 3.722656 17.792969 3.496094 17.976562 3.308594 18.207031 3.308594 18.433594 3.308594 18.621094 3.496094 18.621094 3.722656zM20.277344 2.070312C20.277344 2.296875 20.089844 2.484375 19.863281 2.484375 19.632812 2.484375 19.449219 2.296875 19.449219 2.070312 19.449219 1.839844 19.632812 1.65625 19.863281 1.65625 20.089844 1.65625 20.277344 1.839844 20.277344 2.070312zM20.277344 2.070312"/>
    <path d="M 19.488281 5.660156 C 20.664062 5.292969 21.515625 4.191406 21.515625 2.898438 C 21.515625 1.300781 20.21875 0 18.621094 0 C 17.023438 0 15.722656 1.300781 15.722656 2.898438 C 15.722656 4.191406 16.578125 5.292969 17.753906 5.660156 L 15.84375 7.570312 C 15.683594 7.730469 15.683594 7.992188 15.84375 8.15625 C 15.925781 8.234375 16.03125 8.277344 16.136719 8.277344 C 16.242188 8.277344 16.351562 8.234375 16.429688 8.15625 L 18.101562 6.480469 C 17.582031 9.378906 15.046875 11.585938 12 11.585938 C 9.316406 11.585938 6.976562 13.101562 5.792969 15.316406 L 5.792969 6.378906 L 7.570312 8.15625 C 7.648438 8.234375 7.757812 8.277344 7.863281 8.277344 C 7.96875 8.277344 8.074219 8.234375 8.15625 8.15625 C 8.316406 7.992188 8.316406 7.730469 8.15625 7.570312 L 6.246094 5.660156 C 7.421875 5.292969 8.277344 4.191406 8.277344 2.898438 C 8.277344 1.300781 6.976562 0 5.378906 0 C 3.78125 0 2.484375 1.300781 2.484375 2.898438 C 2.484375 4.191406 3.335938 5.292969 4.511719 5.660156 L 2.605469 7.570312 C 2.441406 7.730469 2.441406 7.992188 2.605469 8.15625 C 2.683594 8.234375 2.789062 8.277344 2.898438 8.277344 C 3.003906 8.277344 3.109375 8.234375 3.1875 8.15625 L 4.964844 6.378906 L 4.964844 18.238281 C 3.5625 18.441406 2.484375 19.648438 2.484375 21.101562 C 2.484375 22.699219 3.78125 24 5.378906 24 C 6.976562 24 8.277344 22.699219 8.277344 21.101562 C 8.277344 19.652344 7.203125 18.453125 5.8125 18.242188 C 6.007812 14.996094 8.703125 12.414062 12 12.414062 C 15.5625 12.414062 18.507812 9.75 18.964844 6.308594 L 20.8125 8.15625 C 20.890625 8.234375 20.996094 8.277344 21.101562 8.277344 C 21.210938 8.277344 21.316406 8.234375 21.394531 8.15625 C 21.558594 7.992188 21.558594 7.730469 21.394531 7.570312 Z M 3.308594 2.898438 C 3.308594 1.753906 4.238281 0.828125 5.378906 0.828125 C 6.519531 0.828125 7.449219 1.753906 7.449219 2.898438 C 7.449219 4.039062 6.519531 4.964844 5.378906 4.964844 C 4.238281 4.964844 3.308594 4.039062 3.308594 2.898438 Z M 7.449219 21.101562 C 7.449219 22.246094 6.519531 23.171875 5.378906 23.171875 C 4.238281 23.171875 3.308594 22.246094 3.308594 21.101562 C 3.308594 19.960938 4.238281 19.035156 5.378906 19.035156 C 6.519531 19.035156 7.449219 19.960938 7.449219 21.101562 Z M 18.894531 0.855469 C 18.738281 0.914062 18.621094 1.0625 18.621094 1.242188 C 18.621094 1.46875 18.804688 1.65625 19.035156 1.65625 C 19.261719 1.65625 19.449219 1.46875 19.449219 1.242188 C 19.449219 1.132812 19.40625 1.035156 19.335938 0.964844 C 20 1.210938 20.507812 1.78125 20.648438 2.492188 C 20.441406 2.511719 20.277344 2.683594 20.277344 2.898438 C 20.277344 3.109375 20.441406 3.28125 20.648438 3.300781 C 20.507812 4.011719 20 4.582031 19.335938 4.832031 C 19.40625 4.757812 19.449219 4.660156 19.449219 4.550781 C 19.449219 4.324219 19.261719 4.136719 19.035156 4.136719 C 18.804688 4.136719 18.621094 4.324219 18.621094 4.550781 C 18.621094 4.730469 18.738281 4.878906 18.894531 4.9375 C 18.804688 4.949219 18.714844 4.964844 18.621094 4.964844 C 18.300781 4.964844 18 4.886719 17.730469 4.757812 C 17.765625 4.695312 17.792969 4.628906 17.792969 4.550781 C 17.792969 4.324219 17.609375 4.136719 17.378906 4.136719 C 17.261719 4.136719 17.15625 4.1875 17.082031 4.265625 C 17.003906 4.175781 16.929688 4.082031 16.867188 3.980469 C 16.925781 3.910156 16.964844 3.824219 16.964844 3.722656 C 16.964844 3.511719 16.800781 3.34375 16.59375 3.320312 C 16.566406 3.183594 16.550781 3.042969 16.550781 2.898438 C 16.550781 2.75 16.566406 2.609375 16.59375 2.472656 C 16.800781 2.449219 16.964844 2.28125 16.964844 2.070312 C 16.964844 1.96875 16.925781 1.882812 16.867188 1.8125 C 16.929688 1.710938 17.003906 1.617188 17.082031 1.527344 C 17.15625 1.605469 17.261719 1.65625 17.378906 1.65625 C 17.609375 1.65625 17.792969 1.46875 17.792969 1.242188 C 17.792969 1.164062 17.765625 1.097656 17.730469 1.035156 C 18 0.90625 18.300781 0.828125 18.621094 0.828125 C 18.714844 0.828125 18.804688 0.84375 18.894531 0.855469 Z M 18.894531 0.855469"/>
</svg>

<svg xmlns="http://www.w3.org/2000/svg" width="32" height="32" viewBox="0 0 24 24">
    <path d="M18.621 2.07a.414.414 0 1 1-.828 0 .414.414 0 0 1 .828 0zm0 0M17.793 2.898c0 .227-.184.41-.414.41a.413.413 0 0 1-.414-.41.414.414 0 0 1 .828 0zm0 0M19.45 2.898c0 .227-.188.41-.415.41a.412.412 0 1 1 0-.824c.227 0 .414.184.414.414zm0 0M20.277 3.723a.414.414 0 1 1-.828 0 .414.414 0 0 1 .828 0zm0 0M18.621 3.723a.414.414 0 1 1-.828 0 .414.414 0 0 1 .828 0zm0 0M20.277 2.07a.414.414 0 1 1-.828 0 .414.414 0 0 1 .828 0zm0 0"/>
    <path d="M19.488 5.66a2.896 2.896 0 1 0-1.734 0l-1.91 1.91a.417.417 0 0 0 0 .586.428.428 0 0 0 .293.121.42.42 0 0 0 .293-.12l1.672-1.677c-.52 2.899-3.055 5.106-6.102 5.106a7.044 7.044 0 0 0-6.207 3.73V6.38L7.57 8.156a.42.42 0 0 0 .293.121c.106 0 .211-.043.293-.12a.417.417 0 0 0 0-.587l-1.91-1.91a2.9 2.9 0 0 0 2.031-2.762C8.277 1.301 6.977 0 5.38 0a2.896 2.896 0 1 0-.867 5.66L2.605 7.57a.414.414 0 1 0 .293.707c.106 0 .211-.043.29-.12l1.777-1.778v11.86a2.899 2.899 0 0 0-2.48 2.863A2.9 2.9 0 0 0 5.378 24c1.598 0 2.898-1.3 2.898-2.898a2.9 2.9 0 0 0-2.464-2.86c.195-3.246 2.89-5.828 6.187-5.828 3.563 0 6.508-2.664 6.965-6.105l1.848 1.847a.412.412 0 0 0 .582 0 .41.41 0 0 0 0-.586zM3.308 2.898a2.071 2.071 0 0 1 4.141 0 2.07 2.07 0 0 1-4.14 0zM7.45 21.102a2.071 2.071 0 0 1-4.14 0 2.07 2.07 0 0 1 4.14 0zM18.895.855a.416.416 0 0 0-.274.387.414.414 0 0 0 .828 0 .39.39 0 0 0-.113-.277 2.062 2.062 0 0 1 1.312 1.527.408.408 0 0 0-.37.406c0 .211.163.383.37.403a2.075 2.075 0 0 1-1.312 1.531.406.406 0 0 0 .113-.281.414.414 0 0 0-.828 0c0 .18.117.328.274.387-.09.011-.18.027-.274.027-.32 0-.621-.078-.89-.207a.415.415 0 0 0 .062-.207.414.414 0 0 0-.414-.414.41.41 0 0 0-.297.129 2.18 2.18 0 0 1-.215-.286.397.397 0 0 0 .098-.257.41.41 0 0 0-.371-.403 2.146 2.146 0 0 1 0-.847.41.41 0 0 0 .37-.403.397.397 0 0 0-.097-.257 2.18 2.18 0 0 1 .215-.286.41.41 0 0 0 .297.13c.23 0 .414-.188.414-.415a.415.415 0 0 0-.063-.207c.27-.129.57-.207.891-.207.094 0 .184.016.274.027zm0 0"/>
</svg>
